X: 277
T:Joker,The. JaW.276
M:6/8
Q:110
S:James Winder Ms, Lancashire, 1835-41
R:Quadrille
O:England
A:Wyresdale,Lancashire
H:1/8
Z:vmp.Chris Partington, Aug 2004
K:C
cBc GAB|cde fga|gec {d}cBc|dBG G3|!
cBc GAB|cag fed|efg GAB|c3 c3:|!
|:Bdf Bdf|ceg dfa|gec afd|gec BAG|!
EGB FAc|GBd Acf|efg GAB|c3 c3:|]
